build/assets/images/svg/icons/delivery/car.svg

<svg width="52" height="52" viewBox="0 0 52 52" fill="none" xmlns="http://www.w3.org/2000/svg">
<rect width="52" height="52" rx="26" fill="#F4F7FB"/>
<path fill-rule="evenodd" clip-rule="evenodd" d="M19.3335 38C21.0751 38 22.5568 36.8869 23.1059 35.3333H31.5611C32.1102 36.8869 33.5919 38 35.3335 38C37.0751 38 38.5568 36.8869 39.1059 35.3333H39.3335C40.0699 35.3333 40.6668 34.7364 40.6668 34V29.5155C40.6668 28.7693 40.5102 28.0314 40.2072 27.3495L38.941 24.5006C38.085 22.5746 36.175 21.3333 34.0673 21.3333H31.3335V19.3333C31.3335 16.3878 28.9457 14 26.0002 14H16.6668C13.7213 14 11.3335 16.3878 11.3335 19.3333V32.6667C11.3335 34.1394 12.5274 35.3333 14.0002 35.3333H15.5611C16.1102 36.8869 17.5919 38 19.3335 38ZM14.0002 19.3333C14.0002 17.8606 15.1941 16.6667 16.6668 16.6667H26.0002C27.4729 16.6667 28.6668 17.8606 28.6668 19.3333V32.6667H23.1059C22.5568 31.1131 21.0751 30 19.3335 30C17.5919 30 16.1102 31.1131 15.5611 32.6667H14.0002V19.3333ZM37.7703 28.4325C37.9219 28.7734 38.0002 29.1424 38.0002 29.5155V31.0185C37.2925 30.3851 36.358 30 35.3335 30C33.5919 30 32.1102 31.1131 31.5611 32.6667H31.3335V24H34.0673C35.1212 24 36.0762 24.6206 36.5042 25.5836L37.7703 28.4325ZM18.0002 34C18.0002 33.2636 18.5971 32.6667 19.3335 32.6667C20.0699 32.6667 20.6668 33.2636 20.6668 34C20.6668 34.7364 20.0699 35.3333 19.3335 35.3333C18.5971 35.3333 18.0002 34.7364 18.0002 34ZM34.0002 34C34.0002 33.2636 34.5971 32.6667 35.3335 32.6667C36.0699 32.6667 36.6668 33.2636 36.6668 34C36.6668 34.7364 36.0699 35.3333 35.3335 35.3333C34.5971 35.3333 34.0002 34.7364 34.0002 34Z" fill="#203686"/>
</svg>

<svg width="52" height="52" fill="none" xmlns="http://www.w3.org/2000/svg"><rect width="52" height="52" rx="26" fill="#F4F7FB"/><path fill-rule="evenodd" clip-rule="evenodd" d="M19.334 38a4.002 4.002 0 003.772-2.667h8.455a4.002 4.002 0 007.545 0h.227c.737 0 1.334-.597 1.334-1.333v-4.485c0-.746-.157-1.484-.46-2.166l-1.266-2.848a5.333 5.333 0 00-4.874-3.168h-2.733v-2A5.333 5.333 0 0026 14h-9.333a5.333 5.333 0 00-5.334 5.333v13.334A2.667 2.667 0 0014 35.333h1.561A4.002 4.002 0 0019.334 38zM14 19.333a2.667 2.667 0 012.667-2.666H26a2.667 2.667 0 012.667 2.666v13.334h-5.561a4.002 4.002 0 00-7.545 0h-1.56V19.333zm23.77 9.1c.152.34.23.71.23 1.082v1.503a4.002 4.002 0 00-6.44 1.648h-.227V24h2.734c1.054 0 2.01.62 2.437 1.584l1.266 2.849zM18 34a1.333 1.333 0 112.667 0A1.333 1.333 0 0118 34zm16 0a1.333 1.333 0 112.667 0A1.333 1.333 0 0134 34z" fill="#203686"/></svg>
